X:617
T: DA JESUS IN DEN GARTEN GING
N: E1958A
O: Europa, Mitteleuropa, Deutschland
R: geistlich, Fest - Lied, Biblischer Stoff, Passion
M: 3/4
L: 1/4
K: F
c | c2c | c2c | F2F | F2
G | A2B | c2G | A2B | c2
A | B2c | d2c | B2A | B2
A | G2A | B2G | c2B | A2

@@@ Tune index: 5301
